packages/react/src/components/base/Icon/assets/icon-date-picker.svg

<svg width="24" height="24" viewBox="0 0 24 24" xmlns="http://www.w3.org/2000/svg" fill="currentColor"> <path d="M20 2.625H18.125V2.25C18.125 1.95163 18.0065 1.66548 17.7955 1.4545C17.5845 1.24353 17.2984 1.125 17 1.125C16.7016 1.125 16.4155 1.24353 16.2045 1.4545C15.9935 1.66548 15.875 1.95163 15.875 2.25V2.625H9.125V2.25C9.125 1.95163 9.00647 1.66548 8.7955 1.4545C8.58452 1.24353 8.29837 1.125 8 1.125C7.70163 1.125 7.41548 1.24353 7.2045 1.4545C6.99353 1.66548 6.875 1.95163 6.875 2.25V2.625H5C4.50272 2.625 4.02581 2.82254 3.67417 3.17417C3.32254 3.52581 3.125 4.00272 3.125 4.5V19.5C3.125 19.9973 3.32254 20.4742 3.67417 20.8258C4.02581 21.1775 4.50272 21.375 5 21.375H20C20.4973 21.375 20.9742 21.1775 21.3258 20.8258C21.6775 20.4742 21.875 19.9973 21.875 19.5V4.5C21.875 4.00272 21.6775 3.52581 21.3258 3.17417C20.9742 2.82254 20.4973 2.625 20 2.625ZM6.875 4.875C6.875 5.17337 6.99353 5.45952 7.2045 5.6705C7.41548 5.88147 7.70163 6 8 6C8.29837 6 8.58452 5.88147 8.7955 5.6705C9.00647 5.45952 9.125 5.17337 9.125 4.875H15.875C15.875 5.17337 15.9935 5.45952 16.2045 5.6705C16.4155 5.88147 16.7016 6 17 6C17.2984 6 17.5845 5.88147 17.7955 5.6705C18.0065 5.45952 18.125 5.17337 18.125 4.875H19.625V7.125H5.375V4.875H6.875ZM5.375 19.125V9.375H19.625V19.125H5.375ZM11 11.625V16.875C11 17.1734 10.8815 17.4595 10.6705 17.6705C10.4595 17.8815 10.1734 18 9.875 18C9.57663 18 9.29048 17.8815 9.0795 17.6705C8.86853 17.4595 8.75 17.1734 8.75 16.875V13.4363C8.48232 13.5241 8.19141 13.5083 7.9348 13.392C7.67819 13.2757 7.47456 13.0674 7.36416 12.8082C7.25377 12.549 7.24464 12.2578 7.3386 11.9922C7.43255 11.7266 7.62274 11.5059 7.87156 11.3737L9.37156 10.6237C9.54272 10.5381 9.73289 10.4975 9.9241 10.5059C10.1153 10.5142 10.3012 10.5712 10.4643 10.6715C10.6273 10.7717 10.7621 10.9119 10.8558 11.0787C10.9495 11.2456 10.9992 11.4336 11 11.625ZM16.7647 14.8013L15.8656 15.75H16.25C16.5484 15.75 16.8345 15.8685 17.0455 16.0795C17.2565 16.2905 17.375 16.5766 17.375 16.875C17.375 17.1734 17.2565 17.4595 17.0455 17.6705C16.8345 17.8815 16.5484 18 16.25 18H13.25C13.0302 17.9999 12.8151 17.9354 12.6315 17.8145C12.4479 17.6936 12.3038 17.5215 12.2169 17.3195C12.1301 17.1176 12.1043 16.8946 12.1428 16.6781C12.1812 16.4617 12.2823 16.2612 12.4334 16.1016L15.0734 13.3125C15.1068 13.2556 15.1246 13.1909 15.125 13.125C15.1252 13.0423 15.0981 12.9618 15.0478 12.8961C14.9975 12.8304 14.9269 12.7832 14.847 12.7618C14.7671 12.7404 14.6823 12.746 14.6059 12.7778C14.5296 12.8096 14.4658 12.8657 14.4247 12.9375C14.2726 13.1901 14.0275 13.3729 13.742 13.4465C13.4566 13.5202 13.1536 13.4789 12.8983 13.3315C12.643 13.184 12.4558 12.9423 12.3769 12.6582C12.298 12.3741 12.3338 12.0704 12.4766 11.8125C12.7655 11.312 13.2114 10.9208 13.7453 10.6997C14.2792 10.4785 14.8712 10.4397 15.4294 10.5892C15.9876 10.7388 16.4808 11.0684 16.8326 11.5269C17.1844 11.9854 17.375 12.5471 17.375 13.125C17.3767 13.6956 17.1909 14.2509 16.8463 14.7056C16.8211 14.7392 16.7939 14.7711 16.7647 14.8013Z"/> </svg>

<svg viewBox="0 0 24 24" xmlns="http://www.w3.org/2000/svg" aria-hidden="true" fill="currentColor"><path d="M20 2.625h-1.875V2.25a1.125 1.125 0 1 0-2.25 0v.375h-6.75V2.25a1.125 1.125 0 0 0-2.25 0v.375H5A1.875 1.875 0 0 0 3.125 4.5v15A1.875 1.875 0 0 0 5 21.375h15a1.875 1.875 0 0 0 1.875-1.875v-15A1.875 1.875 0 0 0 20 2.625M6.875 4.875a1.125 1.125 0 0 0 2.25 0h6.75a1.125 1.125 0 1 0 2.25 0h1.5v2.25H5.375v-2.25zm-1.5 14.25v-9.75h14.25v9.75zm5.625-7.5v5.25a1.125 1.125 0 1 1-2.25 0v-3.439a1.125 1.125 0 0 1-.878-2.062l1.5-.75A1.125 1.125 0 0 1 11 11.625m5.765 3.176-.9.949h.385a1.125 1.125 0 1 1 0 2.25h-3a1.126 1.126 0 0 1-.817-1.898l2.64-2.79a.375.375 0 1 0-.648-.374 1.125 1.125 0 0 1-1.948-1.126 2.624 2.624 0 0 1 4.898 1.313 2.6 2.6 0 0 1-.529 1.58 1 1 0 0 1-.081.096"/></svg>
